X:173
T:Wright’s Hornpipe TS.173
M:C
L:1/8
Q:1/2=90
S:Thomas Sands’ MS,1810,Lincolnshire
R:.hornpipe
O:England;Lincolnshire
Z:vmp.Ruairidh Greig, 2011
K:G
(D/E/F)|G2G2GABG|c2c2cecA|BdBG ABcA|GFED DEFD|
G2G2GABG|c2c2cecA|BdBG AcAF|G2G2G2:|
|:(Bc)|d2d2defg|e2c2c2(AB)|c2c2cecA|B2G2G3B|
AFDF AFDF|A2c2c2A2|BdBG AcAF|G2G2G2:|]

